!!!OTL: IM SACHSENLAND KENN ICH EIN STAEDCHEN
!!!ARE: Europa, Mitteleuropa, Deutschland
!!!SCT: F0143
!!!YEM: Copyright 1995, estate of Helmut Schaffrath.
**kern
*ICvox
*Ivox
*M6/8
*k[f#]
*G:
{8d
=1
8g
8g
8g
8a
8f#
8d
=2
4g
8b
4d}
{8d
=3
8g
8g
8g
8a
8f#
8d
=4
4g
8b
4dd}
{8b
=5
8.a
16a
8a
8gg
8ee
8cc#
=6
4dd
4.r}
{8dd
=7
16dd
16cc
8a
8a
8a
8g
8a
=8
4g
8b
4d}
{8dd
=9
16dd
16cc
8a
8a
8a
8g
8a
=10
4g
8b
4dd}
{8dd
=11
8gg
8gg
8gg
8gg
8ff#
8ffn
=12
4.ee
4r}
{8ee
=13
8.dd
16ee
8dd
8cc
8b
8a
=14
4.g
4r}
==
!!!AGN: Liebes - Lied
!!!ONB: ESAC (Essen Associative Code) Database: FINK
!!!AMT: compound duple
!!!AIN: vox
!!!EED: Helmut Schaffrath
!!!EEV: 1.0
*-
